src/pos-icons/robot-industrial.svg

<svg height="24" viewBox="0 0 24 24" width="24" xmlns="http://www.w3.org/2000/svg"><path d="m18.41 4-2.41 2.41v.18l2.41 2.41h3.59v2h-4.41l-1.59-1.59v2.59h-1a2 2 0 0 1 -2-2v-2.5h-3.14c-.09.37-.24.72-.44 1.05l5.76 10.45h4.82a2 2 0 0 1 2 2v1h-20v-1a2 2 0 0 1 2-2h6.61l-4.69-8.5c-1.8-.03-3.36-1.26-3.81-3-.55-2.14.74-4.32 2.89-4.87 2.13-.55 4.31.73 4.86 2.87h3.14v-2.5a2 2 0 0 1 2-2h1v2.59l1.59-1.59h4.41v2zm-12.41.5a2 2 0 0 0 -2 2 2 2 0 0 0 2 2 2 2 0 0 0 2-2 2 2 0 0 0 -2-2z"/></svg>

<?xml version="1.0" encoding="UTF-8"?><!DOCTYPE svg PUBLIC "-//W3C//DTD SVG 1.1//EN" "http://www.w3.org/Graphics/SVG/1.1/DTD/svg11.dtd"><svg xmlns="http://www.w3.org/2000/svg" xmlns:xlink="http://www.w3.org/1999/xlink" version="1.1" id="mdi-robot-industrial" width="24" height="24" viewBox="0 0 24 24"><path d="M18.41,4L16,6.41V6.59L18.41,9H22V11H17.59L16,9.41V12H15A2,2 0 0,1 13,10V7.5H9.86C9.77,7.87 9.62,8.22 9.42,8.55L15.18,19H20A2,2 0 0,1 22,21V22H2V21A2,2 0 0,1 4,19H10.61L5.92,10.5C4.12,10.47 2.56,9.24 2.11,7.5C1.56,5.36 2.85,3.18 5,2.63C7.13,2.08 9.31,3.36 9.86,5.5H13V3A2,2 0 0,1 15,1H16V3.59L17.59,2H22V4H18.41M6,4.5A2,2 0 0,0 4,6.5A2,2 0 0,0 6,8.5A2,2 0 0,0 8,6.5A2,2 0 0,0 6,4.5Z" /></svg>
